X:1
T:Title
L:1/8
Q:1/4=60
M:6/8
K:Ab
V:1 treble nm="Church Organ, Staff"
V:1
 c>dc cBA | BAF .F3 | EAB cBA | B3 .B3 | e>dc cBA | BAF .F3 | EAB c2 B | A3 .A3 | B>cB BGe | %9
w: By~G.~S.~W. * * * * *|||||||||
 =dcd .e3 | B>cB =dcd | e3 .e3 | e>dc cBA | BAF .F3 | z EA B c2 | B A2- A .A2 |] %16
w: |||||||

